raw-svg/arrow-circle-up.svg

<svg viewBox="0 0 24 24" xmlns="http://www.w3.org/2000/svg"><path d="m12 21a9 9 0 1 1 9-9 9 9 0 0 1 -9 9zm0-16.5a7.5 7.5 0 1 0 7.5 7.5 7.5 7.5 0 0 0 -7.5-7.5z"/><path d="m16 12.75a.74.74 0 0 1 -.53-.22l-3.47-3.47-3.47 3.47a.75.75 0 0 1 -1.06-1.06l4-4a.75.75 0 0 1 1.06 0l4 4a.75.75 0 0 1 0 1.06.74.74 0 0 1 -.53.22z"/><path d="m12 16.75a.76.76 0 0 1 -.75-.75v-8a.75.75 0 0 1 1.5 0v8a.76.76 0 0 1 -.75.75z"/></svg>

<svg xmlns="http://www.w3.org/2000/svg" viewBox="0 0 24 24"><g id="arrow-circle-up"><path d="M12,21a9,9,0,1,1,9-9A9,9,0,0,1,12,21ZM12,4.5A7.5,7.5,0,1,0,19.5,12,7.5,7.5,0,0,0,12,4.5Z"/><path d="M16,12.75a.74.74,0,0,1-.53-.22L12,9.06,8.53,12.53a.75.75,0,0,1-1.06-1.06l4-4a.75.75,0,0,1,1.06,0l4,4a.75.75,0,0,1,0,1.06A.74.74,0,0,1,16,12.75Z"/><path d="M12,16.75a.76.76,0,0,1-.75-.75V8a.75.75,0,0,1,1.5,0v8A.76.76,0,0,1,12,16.75Z"/></g></svg>
